docs/assets/icons/logo.svg

<?xml version="1.0" encoding="UTF-8"?>
<svg width="88px" height="24px" viewBox="0 0 88 24" version="1.1" xmlns="http://www.w3.org/2000/svg" xmlns:xlink="http://www.w3.org/1999/xlink">
    <!-- Generator: Sketch 52.5 (67469) - http://www.bohemiancoding.com/sketch -->
    <title>AY-C_Logo 3</title>
    <desc>Created with Sketch.</desc>
    <g id="Page-1" stroke="none" stroke-width="1" fill="none" fill-rule="evenodd">
        <g id="Desktop-HD-Copy" transform="translate(-156.000000, -32.000000)" fill="#000000" fill-rule="nonzero">
            <g id="Group-4">
                <g id="AY-C_Logo-3" transform="translate(156.000000, 32.000000)">
                    <path d="M9.85543226,0.209336842 L14.5385147,0.209336842 L24.3939785,23.4047684 L19.0818065,23.4047684 L16.9849147,18.2190947 L7.26927312,18.2190947 L5.17234982,23.4047684 L0,23.4047684 L9.85543226,0.209336842 Z M15.1676043,13.8042632 L12.0921462,6.30603158 L9.08658351,13.8042632 L15.1676043,13.8042632 Z" id="Shape"></path>
                    <polygon id="Path" points="30.7545806 14.3648842 21.9475785 0.41958 27.8888086 0.41958 33.3406452 9.66972632 38.9325878 0.41958 44.6639427 0.41958 35.8570036 14.2247368 35.8570036 23.4048 30.7545806 23.4048"></polygon>
                    <path d="M66.7513118,11.9822526 C66.7513118,5.39504211 71.6443011,-0.000887368421 78.7735627,-0.000887368421 C83.1073262,-0.000887368421 85.6933907,1.47072632 87.8602724,3.57303158 L84.6449606,7.28709474 C82.8975771,5.67533684 81.080172,4.69427368 78.7735627,4.69427368 C74.929319,4.69427368 72.1335054,7.91778947 72.1335054,11.8421053 L72.1335054,11.9121789 C72.1335054,15.8364947 74.8592975,19.1301158 78.7735627,19.1301158 C81.4296487,19.1301158 83.0373047,18.0789474 84.7846882,16.3971158 L88,19.6907053 C85.6233692,22.2134842 83.0373047,23.8252421 78.5638136,23.8252421 C71.7840287,23.8252421 66.7513118,18.5694947 66.7513118,11.9822526 Z" id="Path"></path>
                    <polygon id="Path" points="62.3478423 9.66972632 44.1747384 9.66972632 44.1747384 14.1546316 62.3478423 14.1546316"></polygon>
                </g>
            </g>
        </g>
    </g>
</svg>

<?xml version="1.0" encoding="utf-8"?>
<!-- Generator: Adobe Illustrator 23.0.6, SVG Export Plug-In . SVG Version: 6.00 Build 0)  -->
<svg version="1.1" id="Ebene_1" xmlns="http://www.w3.org/2000/svg" xmlns:xlink="http://www.w3.org/1999/xlink" x="0px" y="0px"
	 viewBox="0 0 88 24" style="enable-background:new 0 0 88 24;" xml:space="preserve">
<title>AY-C_Logo 3</title>
<desc>Created with Sketch.</desc>
<g id="Page-1">
	<g id="Desktop-HD-Copy" transform="translate(-156.000000, -32.000000)">
		<g id="Group-4" transform="translate(-31.000000, -73.000000)">
			<g id="AY-C_Logo-3" transform="translate(187.000000, 105.000000)">
				<path id="Shape" d="M9.9,0.2h4.7l9.9,23.2h-5.3L17,18.2H7.3l-2.1,5.2H0L9.9,0.2z M15.2,13.8l-3.1-7.5l-3,7.5H15.2z"/>
				<polygon id="Path" points="30.8,14.4 21.9,0.4 27.9,0.4 33.3,9.7 38.9,0.4 44.7,0.4 35.9,14.2 35.9,23.4 30.8,23.4 				"/>
				<path d="M66.8,12c0-6.6,4.9-12,12-12c4.3,0,6.9,1.5,9.1,3.6l-3.2,3.7c-1.7-1.6-3.6-2.6-5.9-2.6c-3.8,0-6.6,3.2-6.6,7.1v0.1
					c0,3.9,2.7,7.2,6.6,7.2c2.7,0,4.3-1.1,6-2.7l3.2,3.3c-2.4,2.5-5,4.1-9.4,4.1C71.8,23.8,66.8,18.6,66.8,12z"/>
				<polygon points="62.3,9.7 44.2,9.7 44.2,14.2 62.3,14.2 				"/>
			</g>
		</g>
	</g>
</g>
</svg>
